// =====================================================================
// SuperCollider Workspace
// =====================================================================



s.boot;


{ SinOsc.ar(700) }.play(s);






